X:892
T:Tweeddale Club, The
R:Strathspey
C:Nathaniel Gow
B:The Athole Collection
M:C|
L:1/8
K:C
c|G<E c>G A>G E<c|G<E c>E d<D D>c|1 G<E c>G A>Bc>A|
G<cE<c D2C:|2 G<E c>G A>B c<a|g>cf>e d2c||
|:e/f/|g<c g>e c>g e<g|a<d a>f d>e f<a|1 g<c g>e c>ge>g|(3 faf (3ege d2c:|2
g<c a>f e<c B>G|A<c G>c D2C||

